light/assets/img/about_me/logo/Logo_Google_Analytics 1.svg

<svg width="2226" height="800" viewBox="0 0 2226 800" fill="none" xmlns="http://www.w3.org/2000/svg">
<rect width="2226" height="800" fill="#1E1E1E"/>
<g style="mix-blend-mode:luminosity" clip-path="url(#clip0_154_2643)">
<path d="M1308.5 217.429C1308.5 276.678 1264.11 320.338 1209.64 320.338C1155.17 320.338 1110.78 276.678 1110.78 217.429C1110.78 157.762 1155.17 114.52 1209.64 114.52C1264.11 114.52 1308.5 157.762 1308.5 217.429ZM1265.22 217.429C1265.22 180.404 1239.5 155.071 1209.64 155.071C1179.78 155.071 1154.06 180.404 1154.06 217.429C1154.06 254.083 1179.78 279.787 1209.64 279.787C1239.5 279.787 1265.22 254.036 1265.22 217.429Z" fill="#EA4335"/>
<path d="M1521.77 217.429C1521.77 276.678 1477.38 320.338 1422.91 320.338C1368.44 320.338 1324.05 276.678 1324.05 217.429C1324.05 157.808 1368.44 114.52 1422.91 114.52C1477.38 114.52 1521.77 157.762 1521.77 217.429ZM1478.49 217.429C1478.49 180.404 1452.77 155.071 1422.91 155.071C1393.05 155.071 1367.33 180.404 1367.33 217.429C1367.33 254.083 1393.05 279.787 1422.91 279.787C1452.77 279.787 1478.49 254.036 1478.49 217.429Z" fill="#FBBC05"/>
<path d="M1726.15 120.737V305.491C1726.15 381.49 1683.23 412.529 1632.49 412.529C1584.72 412.529 1555.98 379.17 1545.14 351.888L1582.81 335.51C1589.52 352.259 1605.96 372.024 1632.44 372.024C1664.92 372.024 1685.05 351.099 1685.05 311.708V296.907H1683.54C1673.85 309.388 1655.19 320.291 1631.64 320.291C1582.37 320.291 1537.23 275.472 1537.23 217.8C1537.23 159.71 1582.37 114.52 1631.64 114.52C1655.15 114.52 1673.81 125.423 1683.54 137.533H1685.05V120.783H1726.15V120.737ZM1688.12 217.8C1688.12 181.564 1664.97 155.071 1635.51 155.071C1605.65 155.071 1580.64 181.564 1580.64 217.8C1580.64 253.665 1605.65 279.787 1635.51 279.787C1664.97 279.787 1688.12 253.665 1688.12 217.8Z" fill="#4285F4"/>
<path d="M1793.9 12.4453V314.028H1751.7V12.4453H1793.9Z" fill="#34A853"/>
<path d="M1958.39 251.298L1991.98 274.682C1981.14 291.432 1955.01 320.291 1909.87 320.291C1853.89 320.291 1812.08 275.1 1812.08 217.382C1812.08 156.184 1854.24 114.473 1905.03 114.473C1956.17 114.473 1981.18 156.973 1989.36 179.939L1993.84 191.631L1862.11 248.607C1872.19 269.254 1887.88 279.786 1909.87 279.786C1931.91 279.786 1947.19 268.465 1958.39 251.298ZM1855 214.273L1943.06 176.088C1938.22 163.236 1923.64 154.282 1906.49 154.282C1884.5 154.282 1853.89 174.557 1855 214.273Z" fill="#EA4335"/>
<path d="M951.011 190.657V146.998H1091.9C1093.28 154.607 1093.99 163.608 1093.99 173.351C1093.99 206.108 1085.41 246.613 1057.78 275.472C1030.9 304.702 996.552 320.291 951.055 320.291C866.726 320.291 795.814 248.561 795.814 160.499C795.814 72.4372 866.726 0.707031 951.055 0.707031C997.707 0.707031 1030.94 19.8227 1055.91 44.738L1026.41 75.5459C1008.5 58.0077 984.245 44.3669 951.011 44.3669C889.43 44.3669 841.267 96.1926 841.267 160.499C841.267 224.806 889.43 276.632 951.011 276.632C990.954 276.632 1013.7 259.882 1028.28 244.664C1040.09 232.322 1047.87 214.691 1050.94 190.611L951.011 190.657Z" fill="#4285F4"/>
<path d="M911.442 482.479L868.054 607.806H956.578L912.841 482.479H911.442ZM830.615 716.326H792.826L892.897 438.633H931.736L1031.81 716.326H994.018L968.475 641.056H856.508L830.615 716.326Z" fill="#747474"/>
<path d="M1049.03 526.325H1081.92V552.633H1083.32C1088.4 543.407 1096.36 535.734 1107.12 529.613C1118.05 523.31 1129.25 520.113 1140.71 520.113C1163.1 520.113 1180.24 526.873 1192.14 540.209C1204.21 553.363 1210.34 572.272 1210.34 596.844V716.325H1176.05V599.402C1175.35 568.253 1160.39 552.633 1131.26 552.633C1117.7 552.633 1106.24 558.479 1096.97 570.171C1087.87 581.681 1083.32 595.291 1083.32 611.094V716.325H1049.03V526.325Z" fill="#747474"/>
<path d="M1273.62 658.229C1273.62 667.546 1277.3 675.311 1284.82 681.614C1292.25 687.734 1301.09 690.748 1311.41 690.748C1325.58 690.748 1338.35 685.268 1349.55 674.306C1360.92 663.162 1366.69 650.008 1366.69 634.844C1355.94 626.075 1340.98 621.69 1321.91 621.69C1308.09 621.69 1296.54 625.253 1287.27 632.287C1278.17 639.138 1273.62 647.816 1273.62 658.229ZM1317.71 520.113C1342.9 520.113 1362.67 527.238 1377.19 541.306C1391.89 555.464 1399.24 574.83 1399.24 599.402V716.325H1366.69V690.018H1365.3C1351.04 711.758 1332.14 722.537 1308.61 722.537C1288.49 722.537 1271.7 716.325 1258.23 703.902C1244.93 691.479 1238.28 676.042 1238.28 657.498C1238.28 637.767 1245.37 622.239 1259.63 610.729C1273.8 599.037 1292.87 593.19 1316.66 593.19C1336.95 593.19 1353.57 597.027 1366.69 604.517V596.479C1366.69 584.056 1361.88 573.642 1352.35 565.056C1342.99 556.286 1332.05 551.902 1319.46 551.902C1300.3 551.902 1285.26 560.306 1274.32 577.113L1244.23 557.383C1260.76 532.536 1285.26 520.113 1317.71 520.113Z" fill="#747474"/>
<path d="M1470.77 438.633V716.326H1436.48V438.633H1470.77Z" fill="#747474"/>
<path d="M1672.35 526.328L1558.29 800.002H1523.3L1565.64 704.271L1490.41 526.328H1527.5L1581.73 662.982H1582.43L1635.26 526.328H1672.35Z" fill="#747474"/>
<path d="M1766.28 719.25C1751.58 719.25 1739.34 714.5 1729.54 705C1719.74 695.5 1714.67 682.255 1714.49 665.173V558.846H1682.3V526.327H1714.49V468.23H1748.43V526.327H1793.22V558.846H1748.43V653.481C1748.43 666.178 1750.71 674.856 1755.43 679.423C1760.33 683.808 1765.67 686 1771.53 686C1774.33 686 1776.95 685.818 1779.57 685.269C1782.11 684.539 1784.56 683.717 1786.92 682.712L1797.42 714.5C1788.5 717.606 1778.17 719.25 1766.28 719.25Z" fill="#747474"/>
<path d="M1868.01 460.923C1868.01 467.774 1865.56 473.711 1860.66 478.826C1855.94 483.759 1850.34 486.134 1843.86 486.134C1837.04 486.134 1831.35 483.759 1826.72 478.826C1822 473.711 1819.72 467.774 1819.72 460.923C1819.72 453.889 1822 447.951 1826.72 443.019C1831.35 438.177 1837.04 435.711 1843.86 435.711C1850.34 435.711 1855.94 438.177 1860.66 443.019C1865.56 447.951 1868.01 453.889 1868.01 460.923ZM1861.01 526.327V716.327H1826.72V526.327H1861.01Z" fill="#747474"/>
<path d="M1976.19 722.537C1949.07 722.537 1926.68 712.945 1909.01 693.671C1891.52 674.215 1882.77 650.099 1882.77 621.325C1882.77 592.094 1891.52 567.979 1909.01 548.979C1926.68 529.796 1949.07 520.113 1976.19 520.113C1994.82 520.113 2011.01 525.046 2024.83 534.729C2038.56 544.503 2048.97 557.931 2055.97 574.921L2024.83 588.44C2015.2 564.599 1998.32 552.633 1974.09 552.633C1958.43 552.633 1944.87 559.21 1933.5 572.363C1922.31 585.517 1916.71 601.868 1916.71 621.325C1916.71 640.873 1922.31 657.133 1933.5 670.287C1944.87 683.441 1958.43 690.018 1974.09 690.018C1999.02 690.018 2016.52 678.143 2026.58 654.21L2057.02 667.729C2050.46 684.811 2040.05 698.239 2025.88 707.921C2011.62 717.604 1995.08 722.537 1976.19 722.537Z" fill="#747474"/>
<path d="M2226 663.71C2226 680.335 2219 694.311 2205.01 705.729C2191.18 716.873 2173.86 722.537 2152.87 722.537C2134.68 722.537 2118.58 717.513 2104.59 707.556C2090.76 697.599 2080.88 684.445 2074.84 668.094L2105.28 654.575C2109.92 666.085 2116.48 674.945 2124.88 681.248C2133.45 687.643 2142.81 690.748 2152.87 690.748C2163.81 690.748 2172.9 688.373 2180.16 683.441C2187.6 678.599 2191.36 672.753 2191.36 665.902C2191.36 653.753 2182.35 644.892 2164.42 639.229L2133.28 631.19C2097.76 621.69 2080.09 603.787 2080.09 577.479C2080.09 560.214 2086.83 546.33 2100.39 535.825C2113.86 525.411 2131.18 520.113 2152.17 520.113C2168.27 520.113 2182.79 524.133 2195.91 532.171C2208.94 540.209 2218.04 550.988 2223.2 564.325L2192.76 577.479C2189.26 569.44 2183.49 563.229 2175.61 558.844C2167.92 554.277 2159.26 551.902 2149.72 551.902C2140.8 551.902 2132.75 554.277 2125.58 558.844C2118.58 563.503 2115.08 569.258 2115.08 576.017C2115.08 586.796 2124.88 594.561 2144.47 599.402L2171.77 606.71C2207.89 616.027 2226 635.027 2226 663.71Z" fill="#747474"/>
<path d="M469.671 93.633V682.185C469.671 748.09 513.169 784.735 559.335 784.735C602.033 784.735 649 753.524 649 682.185V98.0918C649 37.7597 606.302 0 559.335 0C512.368 0 469.671 41.6611 469.671 93.633Z" fill="#F8AB00"/>
<path d="M234.835 392.367V682.184C234.835 748.09 278.333 784.735 324.499 784.735C367.197 784.735 414.164 753.524 414.164 682.184V396.826C414.164 336.494 371.466 298.734 324.499 298.734C277.532 298.734 234.835 340.396 234.835 392.367Z" fill="#E37300"/>
<path d="M179.329 691.102C179.329 742.795 139.167 784.735 89.6644 784.735C40.1622 784.735 0 742.795 0 691.102C0 639.409 40.1622 597.469 89.6644 597.469C139.167 597.469 179.329 639.409 179.329 691.102Z" fill="#E37300"/>
</g>
<defs>
<clipPath id="clip0_154_2643">
<rect width="2226" height="800" fill="white"/>
</clipPath>
</defs>
</svg>

<?xml version="1.0" encoding="UTF-8"?>
<svg id="Layer_1" data-name="Layer 1" xmlns="http://www.w3.org/2000/svg" xmlns:xlink="http://www.w3.org/1999/xlink" viewBox="0 0 2226 800">
  <defs>
    <style>
      .cls-1 {
        fill: #7c7c7c;
      }

      .cls-1, .cls-2, .cls-3, .cls-4, .cls-5, .cls-6, .cls-7 {
        stroke-width: 0px;
      }

      .cls-2 {
        fill: #7d7d7d;
      }

      .cls-3 {
        fill: #747474;
      }

      .cls-4 {
        fill: #bbb;
      }

      .cls-5 {
        fill: none;
      }

      .cls-6 {
        fill: #888;
      }

      .cls-8 {
        clip-path: url(#clippath);
      }

      .cls-7 {
        fill: #afafaf;
      }

      .cls-9 {
        opacity: .3;
      }
    </style>
    <clipPath id="clippath">
      <rect class="cls-5" width="2226" height="800"/>
    </clipPath>
  </defs>
  <g class="cls-9">
    <g class="cls-8">
      <g>
        <path class="cls-3" d="M1308.5,217.43c0,59.25-44.39,102.91-98.86,102.91s-98.86-43.66-98.86-102.91,44.39-102.91,98.86-102.91,98.86,43.24,98.86,102.91ZM1265.22,217.43c0-37.02-25.72-62.36-55.58-62.36s-55.58,25.33-55.58,62.36,25.72,62.36,55.58,62.36,55.58-25.75,55.58-62.36Z"/>
        <path class="cls-4" d="M1521.77,217.43c0,59.25-44.39,102.91-98.86,102.91s-98.86-43.66-98.86-102.91,44.39-102.91,98.86-102.91,98.86,43.24,98.86,102.91ZM1478.49,217.43c0-37.02-25.72-62.36-55.58-62.36s-55.58,25.33-55.58,62.36,25.72,62.36,55.58,62.36,55.58-25.75,55.58-62.36Z"/>
        <path class="cls-2" d="M1726.15,120.74v184.75c0,76-42.92,107.04-93.66,107.04-47.77,0-76.51-33.36-87.35-60.64l37.67-16.38c6.71,16.75,23.15,36.51,49.63,36.51,32.48,0,52.61-20.92,52.61-60.32v-14.8h-1.51c-9.69,12.48-28.35,23.38-51.9,23.38-49.27,0-94.41-44.82-94.41-102.49s45.14-103.28,94.41-103.28c23.51,0,42.17,10.9,51.9,23.01h1.51v-16.75h41.1v-.05ZM1688.12,217.8c0-36.24-23.15-62.73-52.61-62.73s-54.87,26.49-54.87,62.73,25.01,61.99,54.87,61.99,52.61-26.12,52.61-61.99Z"/>
        <path class="cls-1" d="M1793.9,12.45v301.58h-42.2V12.45h42.2Z"/>
        <path class="cls-3" d="M1958.39,251.3l33.59,23.38c-10.84,16.75-36.97,45.61-82.11,45.61-55.98,0-97.79-45.19-97.79-102.91,0-61.2,42.16-102.91,92.95-102.91s76.15,42.5,84.33,65.47l4.48,11.69-131.73,56.98c10.08,20.65,25.77,31.18,47.76,31.18s37.32-11.32,48.52-28.49ZM1855,214.27l88.06-38.18c-4.84-12.85-19.42-21.81-36.57-21.81-21.99,0-52.6,20.28-51.49,59.99Z"/>
        <path class="cls-2" d="M951.01,190.66v-43.66h140.89c1.38,7.61,2.09,16.61,2.09,26.35,0,32.76-8.58,73.26-36.21,102.12-26.88,29.23-61.23,44.82-106.73,44.82-84.33,0-155.24-71.73-155.24-159.79S866.73.71,951.05.71c46.65,0,79.88,19.12,104.86,44.03l-29.5,30.81c-17.91-17.54-42.17-31.18-75.4-31.18-61.58,0-109.74,51.83-109.74,116.13s48.16,116.13,109.74,116.13c39.94,0,62.69-16.75,77.27-31.97,11.81-12.34,19.59-29.97,22.66-54.05l-99.93.05Z"/>
        <path class="cls-3" d="M911.44,482.48l-43.39,125.33h88.52l-43.74-125.33h-1.4ZM830.61,716.33h-37.79l100.07-277.69h38.84l100.07,277.69h-37.79l-25.54-75.27h-111.97l-25.89,75.27Z"/>
        <path class="cls-3" d="M1049.03,526.33h32.89v26.31h1.4c5.08-9.23,13.04-16.9,23.8-23.02,10.93-6.3,22.13-9.5,33.59-9.5,22.39,0,39.53,6.76,51.43,20.1,12.07,13.15,18.2,32.06,18.2,56.64v119.48h-34.29v-116.92c-.7-31.15-15.66-46.77-44.79-46.77-13.56,0-25.02,5.85-34.29,17.54-9.1,11.51-13.65,25.12-13.65,40.92v105.23h-34.29v-190Z"/>
        <path class="cls-3" d="M1273.62,658.23c0,9.32,3.68,17.08,11.2,23.39,7.43,6.12,16.27,9.13,26.59,9.13,14.17,0,26.94-5.48,38.14-16.44,11.37-11.14,17.14-24.3,17.14-39.46-10.75-8.77-25.71-13.15-44.78-13.15-13.82,0-25.37,3.56-34.64,10.6-9.1,6.85-13.65,15.53-13.65,25.94ZM1317.71,520.11c25.19,0,44.96,7.12,59.48,21.19,14.7,14.16,22.05,33.52,22.05,58.1v116.92h-32.55v-26.31h-1.39c-14.26,21.74-33.16,32.52-56.69,32.52-20.12,0-36.91-6.21-50.38-18.64-13.3-12.42-19.95-27.86-19.95-46.4,0-19.73,7.09-35.26,21.35-46.77,14.17-11.69,33.24-17.54,57.03-17.54,20.29,0,36.91,3.84,50.03,11.33v-8.04c0-12.42-4.81-22.84-14.34-31.42-9.36-8.77-20.3-13.15-32.89-13.15-19.16,0-34.2,8.4-45.14,25.21l-30.09-19.73c16.53-24.85,41.03-37.27,73.48-37.27Z"/>
        <path class="cls-3" d="M1470.77,438.63v277.69h-34.29v-277.69h34.29Z"/>
        <path class="cls-3" d="M1672.35,526.33l-114.06,273.67h-34.99l42.34-95.73-75.23-177.94h37.09l54.23,136.65h.7l52.83-136.65h37.09Z"/>
        <path class="cls-3" d="M1766.28,719.25c-14.7,0-26.94-4.75-36.74-14.25-9.8-9.5-14.87-22.74-15.05-39.83v-106.33h-32.19v-32.52h32.19v-58.1h33.94v58.1h44.79v32.52h-44.79v94.64c0,12.7,2.28,21.38,7,25.94,4.9,4.39,10.24,6.58,16.1,6.58,2.8,0,5.42-.18,8.04-.73,2.54-.73,4.99-1.55,7.35-2.56l10.5,31.79c-8.92,3.11-19.25,4.75-31.14,4.75Z"/>
        <path class="cls-3" d="M1868.01,460.92c0,6.85-2.45,12.79-7.35,17.9-4.72,4.93-10.32,7.31-16.8,7.31-6.82,0-12.51-2.38-17.14-7.31-4.72-5.11-7-11.05-7-17.9s2.28-12.97,7-17.9c4.63-4.84,10.32-7.31,17.14-7.31s12.08,2.47,16.8,7.31c4.9,4.93,7.35,10.87,7.35,17.9ZM1861.01,526.33v190h-34.29v-190h34.29Z"/>
        <path class="cls-3" d="M1976.19,722.54c-27.12,0-49.51-9.59-67.18-28.87-17.49-19.46-26.24-43.57-26.24-72.35s8.75-53.35,26.24-72.35c17.67-19.18,40.06-28.87,67.18-28.87,18.63,0,34.82,4.93,48.64,14.62,13.73,9.77,24.14,23.2,31.14,40.19l-31.14,13.52c-9.63-23.84-26.51-35.81-50.74-35.81-15.66,0-29.22,6.58-40.59,19.73-11.19,13.15-16.79,29.51-16.79,48.96s5.6,35.81,16.79,48.96c11.37,13.15,24.93,19.73,40.59,19.73,24.93,0,42.43-11.88,52.49-35.81l30.44,13.52c-6.56,17.08-16.97,30.51-31.14,40.19-14.26,9.68-30.8,14.62-49.69,14.62Z"/>
        <path class="cls-3" d="M2226,663.71c0,16.62-7,30.6-20.99,42.02-13.83,11.14-31.15,16.81-52.14,16.81-18.19,0-34.29-5.02-48.28-14.98-13.83-9.96-23.71-23.11-29.75-39.46l30.44-13.52c4.64,11.51,11.2,20.37,19.6,26.67,8.57,6.4,17.93,9.5,27.99,9.5,10.94,0,20.03-2.38,27.29-7.31,7.44-4.84,11.2-10.69,11.2-17.54,0-12.15-9.01-21.01-26.94-26.67l-31.14-8.04c-35.52-9.5-53.19-27.4-53.19-53.71,0-17.27,6.74-31.15,20.3-41.65,13.47-10.41,30.79-15.71,51.78-15.71,16.1,0,30.62,4.02,43.74,12.06,13.03,8.04,22.13,18.82,27.29,32.15l-30.44,13.15c-3.5-8.04-9.27-14.25-17.15-18.64-7.69-4.57-16.35-6.94-25.89-6.94-8.92,0-16.97,2.38-24.14,6.94-7,4.66-10.5,10.41-10.5,17.17,0,10.78,9.8,18.54,29.39,23.38l27.3,7.31c36.12,9.32,54.23,28.32,54.23,57Z"/>
        <path class="cls-7" d="M469.67,93.63v588.55c0,65.91,43.5,102.55,89.66,102.55,42.7,0,89.66-31.21,89.66-102.55V98.09c0-60.33-42.7-98.09-89.66-98.09s-89.66,41.66-89.66,93.63Z"/>
        <path class="cls-6" d="M234.84,392.37v289.82c0,65.91,43.5,102.55,89.66,102.55,42.7,0,89.67-31.21,89.67-102.55v-285.36c0-60.33-42.7-98.09-89.67-98.09s-89.66,41.66-89.66,93.63Z"/>
        <path class="cls-6" d="M179.33,691.1c0,51.69-40.16,93.63-89.66,93.63S0,742.79,0,691.1s40.16-93.63,89.66-93.63,89.66,41.94,89.66,93.63Z"/>
      </g>
    </g>
  </g>
</svg>
